X:2057
T:Bagpipers
R:March
C:Trad. (Mittell 1799)
O:England; Kent
Z:Paul Hardy's Session Tunebook 2022 (see www.paulhardy.net). Creative Commons cc by-nc-sa licenced.
M:2/2
L:1/4
Q:1/2=80
K:G
D|"Em"E/2F/2G GF|"C"E3D|"Am"E>D"D7"EF|"G"G/2F/2G/2A/2 GD|"C"E/2F/2G GF|"Em"E3D|"Am"E>D"D7"EF|"G"G2-G:|
|:A|"G"B/2c/2d dB|"D"BA A2|"G"B/2A/2B/2c/2 dd|"Em"B/2A/2B/2c/2 d D|"C"E/2F/2G GF|"Em"E3D|"Am"E>D"D7"EF|"G"G2-G:|

